!!!COM: Yudakov, Sulaimon
!!!CDT: 1916-1990
!!!OTL: National Anthem, Takikistan
!!!ENC: Davis, Matthew J.
!!Vocal Line Only
**kern
*clefG2
*k[b-e-a-d-g-]
*D-:
*M2/4
=1-
[2b-
=2
8b-]
16r
16f
8.b-
16a-
==!|:3
[2b-
=4
8.b-
16f
8.b-
16a-
=5
[2b-
=6
8.b-]
16a-
8.b-
16cc
=7
8.dd-
16ee-
8.cc
16dd-
=8
8.b-
16cc
16b-q
16ccq
8.b-
16a-
=9
8.b-
16a-
[4b-
=10
8.b-]
16a-
8.b-
16cc
=11
8.dd-
16ee-
8.cc
16dd-
=12
8.b-
16cc
16b-q
16ccq
8.b-
16a-
=13
8.b-
16a-
[4b-
=14
8b-]
16r
16a-
8.b-
16cc
=15
4dd-
8.dd-
16dd-
=16
8.dd-
16cc
8.dd-
16ee-
=17
[2dd-
=18
8dd-]
16r
16a-
8.b-
16cc
=19
8.dd-
16dd-
8.dd-
16dd-
=20
8.dd-
16cc
8.dd-
16ee-
=21
8.dd
16cc
8.dd
16ee-
=22
[2ff
=23
8ff]
8r
8.ff
16gg-
=24
16ee-q
16ffq
8.ee-
16dd-
8.ee-
16ff
=25
16dd-q
16ee-q
8.dd-
16cc
8.dd-
16ee-
=26
16ccq
16dd-q
8.cc
16b-
8.cc
16dd-
=27
4b-
4a-
=28
!First Ending
[2b-
=29
8b-]
16r
16f
8.b-
16a-
==:|!30
!Second Ending
[2b-
=31
8b-]
8r
4r
==|!
*-
